X: 2071
T: Miss Sarah Drummond of Perth's    Strathspey
C: By Cap.t Ross, Royal Artilery.
%R: strathspey
B: Niel Gow & Sons "A Second Collection of Strathspey Reels, etc." v.2 p.7 #1
Z: 2022 John Chambers <jc:trillian.mit.edu>
M: C
L: 1/8
K: Em
%%slurgraces 1
%%graceslurs 1
% - - - - - - - - - -
V: 1 staves=2
B, |\
TE3F E/E/E EF | A>BAF DEFD |  B,E-TE>D TE>FGe | d<BTA>F {FA}B2E :| B | e3f e/e/e Te>d | B<dTA>F D>EFD |
e3f e/e/e Te>d | B<dTF>A {FA}B2EB || e3f e/e/e Te>d | B<dTA>F D>EFD | B,E-TE>D TE>FGe | d<BTA>F {FA}B2E |]
% - - - - - - - - - -
% Voice 2 preserves the staff layout in the book.
V: 2 clef=bass middle=d
z | e2e2 e2e2 | f2a2 d2d2 | e2e2 e2e2 | b2B2 e2e :| z | e2e2 e2e2 | g2a2 d2d2 |
e2e2 e2e2 | g2b2 e2e2 || e2e2 e2e2 | g2a2 d2d2 | e2e2 e2e2 | b2B2 e2e |]


